images/logo/footer-logo.svg

<svg width="93" height="81" viewBox="0 0 93 81" fill="none" xmlns="http://www.w3.org/2000/svg">
<path d="M58.6727 34.6445H55.4047C55.202 36.1786 53.8847 37.3547 52.314 37.3547V40.6274C55.6833 40.6274 58.4447 37.9939 58.6727 34.6445Z" fill="#242424"/>
<path d="M58.6728 33.775C58.4702 30.4256 55.6835 27.7666 52.3141 27.7666V31.0393C53.9101 31.0393 55.2275 32.2409 55.4301 33.775H58.6728Z" fill="#242424"/>
<path d="M58.6728 43.4137C58.4702 40.0643 55.6835 37.4053 52.3141 37.4053V40.6779C53.9101 40.6779 55.2275 41.8796 55.4301 43.4137H58.6728Z" fill="#242424"/>
<path d="M58.6727 44.2832H55.4047C55.202 45.8173 53.8847 46.9934 52.314 46.9934V50.266C55.6833 50.266 58.4447 47.6326 58.6727 44.2832Z" fill="#242424"/>
<path d="M35.3403 0C32.0216 0.204541 29.3869 3.01698 29.3869 6.41748H32.6296C32.6296 4.80672 33.8203 3.4772 35.3403 3.27266V0Z" fill="#242424"/>
<path d="M51.4526 27.8176C48.1339 28.0477 45.4992 30.8346 45.4992 34.2351H48.7419C48.7419 32.6243 49.9326 31.3204 51.4526 31.0903V27.8176Z" fill="#242424"/>
<path d="M36.1765 0V3.29823C37.6965 3.50277 38.8618 4.83229 38.8618 6.41748H42.1045C42.1299 3.01698 39.4952 0.230109 36.1765 0Z" fill="#242424"/>
<path d="M52.238 8.87207V12.1703C53.758 12.3748 54.9234 13.7044 54.9234 15.2896H58.1661C58.1914 11.8635 55.5567 9.07661 52.238 8.87207Z" fill="#242424"/>
<path d="M36.1512 22.6785C39.4699 22.4739 42.1046 19.6615 42.1046 16.261H38.8619C38.8619 17.8717 37.6712 19.2013 36.1512 19.4058V22.6785Z" fill="#242424"/>
<path d="M35.3152 22.6529V19.3802C33.7951 19.1757 32.6298 17.8462 32.6298 16.261H29.3871C29.3617 19.6615 31.9964 22.4484 35.3152 22.6529Z" fill="#242424"/>
<path d="M22.4203 0.460205H19.2029V22.1416H22.4203V0.460205Z" fill="#242424"/>
<path d="M32.6299 9.63892H23.2311V12.886H32.6299V9.63892Z" fill="#242424"/>
<path d="M58.1914 0.460205H45.4486V3.7073H58.1914V0.460205Z" fill="#242424"/>
<path d="M42.1046 9.63892H38.8619V12.886H42.1046V9.63892Z" fill="#242424"/>
<path d="M52.998 8.87207H49.7553V12.1192H52.998V8.87207Z" fill="#242424"/>
<path d="M35.3152 27.6899C31.9965 27.8945 29.3618 30.7069 29.3618 34.1074H32.6045C32.6045 32.4967 33.7952 31.1671 35.3152 30.9626V27.6899Z" fill="#242424"/>
<path d="M36.1765 27.6899V30.9882C37.6965 31.1927 38.8618 32.5222 38.8618 34.1074H42.1045C42.1045 30.7069 39.4698 27.9201 36.1765 27.6899Z" fill="#242424"/>
<path d="M36.1512 50.4961C39.4699 50.2916 42.1046 47.4791 42.1046 44.0786H38.8619C38.8619 45.6894 37.6712 47.0189 36.1512 47.2234V50.4961Z" fill="#242424"/>
<path d="M35.2899 50.4961V47.1979C33.7699 46.9933 32.6045 45.6638 32.6045 44.0786H29.3618C29.3618 47.4791 31.9712 50.266 35.2899 50.4961Z" fill="#242424"/>
<path d="M42.1046 35.0276H38.8619V43.1325H42.1046V35.0276Z" fill="#242424"/>
<path d="M48.7672 33.3403H45.5245V36.5874H48.7672V33.3403Z" fill="#242424"/>
<path d="M48.7672 41.522H45.5245V44.7691H48.7672V41.522Z" fill="#242424"/>
<path d="M54.0622 37.3289H45.3981V40.5759H54.0622V37.3289Z" fill="#242424"/>
<path d="M32.6045 35.0276H29.3618V43.1325H32.6045V35.0276Z" fill="#242424"/>
<path d="M48.6913 4.67896H45.4486V12.068H48.6913V4.67896Z" fill="#242424"/>
<path d="M51.4526 50.3684V47.0702C49.9325 46.8656 48.7672 45.5361 48.7672 43.9509H45.5245C45.5245 47.3514 48.1338 50.1383 51.4526 50.3684Z" fill="#242424"/>
<path d="M73.2904 34.644H70.0224C69.8197 36.1781 68.5024 37.3542 66.9317 37.3542V40.6269C70.3011 40.6269 73.0624 37.9934 73.2904 34.644Z" fill="#242424"/>
<path d="M73.2904 43.4137C73.0878 40.0643 70.3011 37.4053 66.9317 37.4053V40.6779C68.5277 40.6779 69.8451 41.8796 70.0477 43.4137H73.2904Z" fill="#242424"/>
<path d="M65.2087 28.1501H61.966V36.5875H65.2087V28.1501Z" fill="#242424"/>
<path d="M65.2087 41.522H61.966V49.857H65.2087V41.522Z" fill="#242424"/>
<path d="M68.4264 37.3289H61.8396V40.5759H68.4264V37.3289Z" fill="#242424"/>
<path d="M81.6252 33.3403H78.3824V36.5874H81.6252V33.3403Z" fill="#242424"/>
<path d="M91.1252 33.3403H87.8824V36.5874H91.1252V33.3403Z" fill="#242424"/>
<path d="M91.1252 41.394H87.8824V44.6411H91.1252V41.394Z" fill="#242424"/>
<path d="M84.3359 27.6899C81.0171 27.9201 78.3824 30.7069 78.3824 34.1074H81.6252C81.6252 32.4967 82.8158 31.1927 84.3359 30.9626V27.6899Z" fill="#242424"/>
<path d="M85.1971 27.6899V30.9882C86.7171 31.1927 87.8825 32.5222 87.8825 34.1074H91.1252C91.1252 30.7069 88.5158 27.9201 85.1971 27.6899Z" fill="#242424"/>
<path d="M76.1023 27.6387C72.7836 27.8432 70.1489 30.6557 70.1489 34.0561H73.3916C73.3916 32.4454 74.5823 31.1414 76.1023 30.9113V27.6387Z" fill="#242424"/>
<path d="M76.1023 50.4961C72.7836 50.2916 70.1489 47.4791 70.1489 44.0786H73.3916C73.3916 45.6894 74.5823 47.0189 76.1023 47.2234V50.4961Z" fill="#242424"/>
<path d="M91.1252 43.823H87.9078V49.8314H91.1252V43.823Z" fill="#242424"/>
<path d="M81.6252 41.394H78.3824V44.6411H81.6252V41.394Z" fill="#242424"/>
<path d="M81.6253 43.823H78.4079V49.8314H81.6253V43.823Z" fill="#242424"/>
<path d="M91.1253 37.3289H78.3824V40.5759H91.1253V37.3289Z" fill="#242424"/>
<path d="M6.00413 5.625H2.76141V8.87209H6.00413V5.625Z" fill="#242424"/>
<path d="M15.5044 5.625H12.2617V8.87209H15.5044V5.625Z" fill="#242424"/>
<path d="M32.6045 5.625H29.3618V8.87209H32.6045V5.625Z" fill="#242424"/>
<path d="M42.1299 5.625H38.8871V8.87209H42.1299V5.625Z" fill="#242424"/>
<path d="M32.6045 13.7043H29.3618V16.9514H32.6045V13.7043Z" fill="#242424"/>
<path d="M42.1299 13.7043H38.8871V16.9514H42.1299V13.7043Z" fill="#242424"/>
<path d="M52.238 22.6785C55.5567 22.4739 58.1914 19.6615 58.1914 16.261H54.9487C54.9487 17.8717 53.758 19.2013 52.238 19.4058V22.6785Z" fill="#242424"/>
<path d="M51.3767 22.6529V19.3802C49.8567 19.1757 48.6913 17.8462 48.6913 16.261H45.4486C45.4486 19.6615 48.058 22.4484 51.3767 22.6529Z" fill="#242424"/>
<path d="M48.6913 12.9373H45.4486V16.9514H48.6913V12.9373Z" fill="#242424"/>
<path d="M6.00413 9.9458H2.76141V16.9513H6.00413V9.9458Z" fill="#242424"/>
<path d="M8.71483 0C5.39612 0.230109 2.76141 3.01698 2.76141 6.41748H6.00413C6.00413 4.80672 7.19481 3.50277 8.71483 3.27266V0Z" fill="#242424"/>
<path d="M9.57611 0V3.29823C11.0961 3.50277 12.2615 4.83229 12.2615 6.41748H15.5042C15.5042 3.01698 12.8948 0.230109 9.57611 0Z" fill="#242424"/>
<path d="M0.0256348 22.5251C3.34435 22.3206 5.97905 19.5337 5.97905 16.1077H2.73634C2.73634 17.7184 1.54566 19.0224 0.0256348 19.2525V22.5251Z" fill="#242424"/>
<path d="M15.5041 9.9458H12.2867V22.1416H15.5041V9.9458Z" fill="#242424"/>
<path d="M65.133 11.2244L61.9156 15.5454V0.460449H65.133V11.2244Z" fill="#242424"/>
<path d="M74.8104 22.1929H71.593V11.7101L74.8104 7.59375V22.1929Z" fill="#242424"/>
<path d="M74.8105 0.0253906L61.9156 17.5392V22.7806L74.8105 5.3946V0.0253906Z" fill="#242424"/>
<path d="M15.3777 39.1953L12.1603 43.235V38.9908L15.3777 34.6443V39.1953Z" fill="#242424"/>
<path d="M25.6883 49.8824H22.4709V38.8883L25.6883 35.0276V49.8824Z" fill="#242424"/>
<path d="M25.6885 27.7153L12.1603 45.2292V50.4706L25.6885 33.0845V27.7153Z" fill="#242424"/>
<path d="M15.3775 27.7153L0 45.2292V50.4706L15.3775 33.0845V27.7153Z" fill="#242424"/>
<path d="M70.1491 55.0728C65.513 55.3796 61.8397 59.2659 61.8397 64.0214H66.3744C66.3744 61.7971 68.0211 59.9306 70.1744 59.6494V55.0728H70.1491Z" fill="#242424"/>
<path d="M71.3397 55.0728V59.6494C73.4677 59.9562 75.0891 61.7971 75.0891 64.0214H79.6238C79.6238 59.2659 75.9504 55.3796 71.3397 55.0728Z" fill="#242424"/>
<path d="M83.4744 55.0728C78.8383 55.3796 75.1649 59.2659 75.1649 64.0214H79.6996C79.6996 61.7971 81.3463 59.9306 83.4997 59.6494V55.0728H83.4744Z" fill="#242424"/>
<path d="M84.6653 55.0728V59.6494C86.7933 59.9562 88.4147 61.7971 88.4147 64.0214H92.9494C92.9494 59.2659 89.3013 55.3796 84.6653 55.0728Z" fill="#242424"/>
<path d="M76.8371 75.5784C74.6077 74.479 66.9316 70.2859 66.5769 65.249H61.8395C62.1942 72.7659 73.9997 78.9789 76.8117 80.3595V75.5784H76.8371Z" fill="#242424"/>
<path d="M88.2878 65.2485C87.9584 70.2854 80.257 74.4785 78.0276 75.5779V80.359C80.8397 78.9784 92.6705 72.7654 92.9998 65.2485H88.2878Z" fill="#242424"/>
</svg>

<svg width="93" height="81" fill="none" xmlns="http://www.w3.org/2000/svg"><path d="M58.673 34.645h-3.268a3.126 3.126 0 0 1-3.091 2.71v3.272c3.37 0 6.13-2.633 6.359-5.983ZM58.673 33.775c-.203-3.35-2.99-6.008-6.359-6.008v3.272a3.154 3.154 0 0 1 3.116 2.736h3.243Z" fill="#242424"/><path d="M58.673 43.414c-.203-3.35-2.99-6.009-6.359-6.009v3.273a3.154 3.154 0 0 1 3.116 2.736h3.243ZM58.673 44.283h-3.268a3.126 3.126 0 0 1-3.091 2.71v3.273c3.37 0 6.13-2.633 6.359-5.983ZM35.34 0c-3.318.205-5.953 3.017-5.953 6.417h3.243c0-1.61 1.19-2.94 2.71-3.144V0ZM51.453 27.818c-3.32.23-5.954 3.017-5.954 6.417h3.243c0-1.61 1.19-2.915 2.71-3.145v-3.272ZM36.176 0v3.298c1.52.205 2.686 1.534 2.686 3.12h3.242A6.385 6.385 0 0 0 36.177 0ZM52.238 8.872v3.298c1.52.205 2.685 1.534 2.685 3.12h3.243c.025-3.426-2.61-6.213-5.928-6.418ZM36.151 22.678c3.319-.204 5.954-3.017 5.954-6.417h-3.243c0 1.61-1.19 2.94-2.71 3.145v3.273ZM35.315 22.653V19.38c-1.52-.204-2.685-1.534-2.685-3.119h-3.243c-.025 3.4 2.61 6.187 5.928 6.392ZM22.42.46h-3.217v21.682h3.217V.46ZM32.63 9.639H23.23v3.247h9.399V9.639ZM58.191.46H45.45v3.247H58.19V.46ZM42.105 9.639h-3.243v3.247h3.243V9.639Z" fill="#242424"/><path d="M52.998 8.872h-3.243v3.247h3.243V8.872ZM35.315 27.69c-3.318.204-5.953 3.017-5.953 6.417h3.243c0-1.61 1.19-2.94 2.71-3.144V27.69ZM36.176 27.69v3.298c1.52.205 2.686 1.534 2.686 3.12h3.242c0-3.401-2.634-6.188-5.928-6.418ZM36.151 50.496c3.319-.204 5.954-3.017 5.954-6.417h-3.243c0 1.61-1.19 2.94-2.71 3.144v3.273ZM35.29 50.496v-3.298c-1.52-.205-2.685-1.534-2.685-3.12h-3.243c0 3.401 2.61 6.188 5.928 6.418ZM42.105 35.028h-3.243v8.105h3.243v-8.105ZM48.767 33.34h-3.242v3.247h3.242V33.34ZM48.767 41.522h-3.242v3.247h3.242v-3.247ZM54.062 37.329h-8.664v3.247h8.664v-3.247ZM32.605 35.028h-3.243v8.105h3.243v-8.105ZM48.691 4.679H45.45v7.389h3.242V4.679Z" fill="#242424"/><path d="M51.453 50.368V47.07c-1.52-.204-2.686-1.534-2.686-3.12h-3.242c0 3.401 2.609 6.188 5.928 6.418ZM73.29 34.644h-3.268a3.126 3.126 0 0 1-3.09 2.71v3.273c3.37 0 6.13-2.634 6.358-5.983Z" fill="#242424"/><path d="M73.29 43.414c-.202-3.35-2.989-6.009-6.358-6.009v3.273a3.154 3.154 0 0 1 3.116 2.736h3.242ZM65.209 28.15h-3.243v8.438h3.243V28.15ZM65.209 41.522h-3.243v8.335h3.243v-8.335Z" fill="#242424"/><path d="M68.426 37.329H61.84v3.247h6.586v-3.247ZM81.625 33.34h-3.243v3.247h3.243V33.34ZM91.125 33.34h-3.243v3.247h3.243V33.34ZM91.125 41.394h-3.243v3.247h3.243v-3.247Z" fill="#242424"/><path d="M84.336 27.69c-3.319.23-5.954 3.017-5.954 6.417h3.243c0-1.61 1.19-2.914 2.71-3.144V27.69ZM85.197 27.69v3.298c1.52.205 2.685 1.534 2.685 3.12h3.243c0-3.401-2.61-6.188-5.928-6.418ZM76.102 27.639c-3.318.204-5.953 3.017-5.953 6.417h3.243c0-1.61 1.19-2.915 2.71-3.145V27.64ZM76.102 50.496c-3.318-.204-5.953-3.017-5.953-6.417h3.243c0 1.61 1.19 2.94 2.71 3.144v3.273ZM91.125 43.823h-3.217v6.008h3.217v-6.008ZM81.625 41.394h-3.243v3.247h3.243v-3.247Z" fill="#242424"/><path d="M81.625 43.823h-3.217v6.008h3.217v-6.008ZM91.125 37.329H78.382v3.247h12.743v-3.247ZM6.004 5.625H2.761v3.247h3.243V5.625ZM15.504 5.625h-3.242v3.247h3.242V5.625ZM32.605 5.625h-3.243v3.247h3.243V5.625ZM42.13 5.625h-3.243v3.247h3.243V5.625ZM32.605 13.704h-3.243v3.247h3.243v-3.247ZM42.13 13.704h-3.243v3.247h3.243v-3.247ZM52.238 22.678c3.319-.204 5.953-3.017 5.953-6.417H54.95c0 1.61-1.191 2.94-2.711 3.145v3.273ZM51.377 22.653V19.38c-1.52-.204-2.686-1.534-2.686-3.119H45.45c0 3.4 2.609 6.187 5.928 6.392Z" fill="#242424"/><path d="M48.691 12.937H45.45v4.014h3.242v-4.014ZM6.004 9.946H2.761v7.005h3.243V9.946ZM8.715 0C5.396.23 2.76 3.017 2.76 6.417h3.243c0-1.61 1.19-2.914 2.71-3.144V0ZM9.576 0v3.298c1.52.205 2.685 1.534 2.685 3.12h3.243c0-3.401-2.61-6.188-5.928-6.418Z" fill="#242424"/><path d="M.026 22.525c3.318-.204 5.953-2.991 5.953-6.417H2.736c0 1.61-1.19 2.914-2.71 3.145v3.272ZM15.504 9.946h-3.217v12.196h3.217V9.946ZM65.133 11.224l-3.217 4.321V.46h3.217v10.764ZM74.81 22.193h-3.217V11.71l3.217-4.116v14.599ZM74.81.025 61.917 17.54v5.242L74.81 5.395V.025ZM15.378 39.195l-3.218 4.04v-4.244l3.218-4.347v4.551ZM25.688 49.882h-3.217V38.888l3.217-3.86v14.854ZM25.689 27.715 12.16 45.23v5.242L25.69 33.085v-5.37ZM15.377 27.715 0 45.23v5.242l15.377-17.386v-5.37ZM70.15 55.073c-4.637.307-8.31 4.193-8.31 8.948h4.534c0-2.224 1.647-4.09 3.8-4.372v-4.576h-.025ZM71.34 55.073v4.576c2.128.307 3.75 2.148 3.75 4.372h4.534c0-4.755-3.674-8.641-8.284-8.948Z" fill="#242424"/><path d="M83.474 55.073c-4.636.307-8.31 4.193-8.31 8.948H79.7c0-2.224 1.646-4.09 3.8-4.372v-4.576h-.026ZM84.665 55.073v4.576c2.128.307 3.75 2.148 3.75 4.372h4.534c0-4.755-3.648-8.641-8.284-8.948ZM76.837 75.578c-2.23-1.099-9.905-5.292-10.26-10.329H61.84c.354 7.517 12.16 13.73 14.972 15.11v-4.78h.025ZM88.288 65.249c-.33 5.036-8.031 9.23-10.26 10.329v4.781C80.84 78.979 92.67 72.765 93 65.249h-4.712Z" fill="#242424"/></svg>
